X: 051506
T: Ewe Reel
T: R\'il na F\'oisce
S: B.Breathnach: "Ceol Rince na hEireann" II/145 
Z: B.Black
L: 1/8
M: 4/4
R: reel
K: G
DG G2 DG G2|F2 AF cFAF|DGGF GBAg|fdcA BGAF|
DG G2 DG G2|F2 AF cFAF|DGGF GGGg|fdcA BG G2 :||
(3gfg bg dgbg|(3fgf af cFAF|(3gfg bg dgag|agfa ggga|
(3bag ag fdde|(3fgf fd ^cAFA|dggf gbag|fd^cA BG G2 :|
